X:47
T:Master Crowley
S:Bernie Waugh
R:Reel
M:4/4
L:1/8
K:E minor
|:\
"Em"B,2~E2B,EGE|"D"DB,A,G, A,G,A,G,|\
"Em"B,2~E2B,EGE|"D"FAdF "Em"~FEE2|
"Em"B,2~E2B,EGE|"D"DB,A,G, A,G,A,G,|\
"G"[B,2D2][B,2D2] "C"[C3E3]=F|"D"^FAdF "Em"FEE2:|
|:\
"Em"ebga fge^c|"D"d2adbdad|\
"Em"ebga fge^c|"D"dBAF "A(maj)"~FEE2|
"Em"ebga fge^c|"D"d2ad bdad|\
"C"EFGA BAGA|"C7"BAGF ~FEE2:|

